X: 100234
M: C|
L: 1/8
K: D
((3vA,B,C) |\
|: (ude) |\
fBBB fgfe | defd B2 ((3cBA) | BdAd BdAF | (EF)ED (B,A,)A,A, |\


